X: 1
T: Bingsj\"o storpolska
O:
R: Bingsj\"opolska, 16th-note polska
Z: John Chambers <jc@trillian.mit.edu>
M: 3/4
L: 1/16
K: D
|: A2- \
| "D"A3A d2d2 fafd | "A"cdec A6 A2- \
| "A"ABcd e2ce "D"~f2ef | "A"gage "D"d2fd "A"c3d \
| "A"efec "D"{c}d6 A2- |
| "D"A3A d2d2 ~f2ef | "G"{f}g2g2 fgfe d2c2 \
| "Em"~c3B [B6E6] B2- | "D"~B3A A2d2 ~f2ed \
| "A"c3e {e}a2a2 c3d | efec "D"~d6 :|
|: A2- \
| "D"f3d d2d2 f2fa | "D"efed cBcd e2f2 \
| "G"[D4B4g4] gagf efed | "A"cdcB ABAG "D"FDFA | d2fd "A"c2ec "D"d2fd |
| "A"efed cBcd e2f2 | "G"[D4B4g4] {b}abag "D"~f2ef \
| "A"gage "D"d2fd "A"c3d | efec "D"~d6 \
:: A2- \
| "D"A3A {ABc}[d4D4] [d4D4] | "D"F2F2 A4 [A4D4] |
| "A"EFED E2F2 ~G4- | "G"G2B2- ~B2AG "A"A3A \
| "D"A3A d2d2 efed | "G"c2dc B4- B2Bd \
| "A"cdef g2ag "D"~f2ed | "A"cdec "D"d6 :|

%%sep 1 1 500

